X: 1
T: Uti v\aar hage d\"ar v\"axa bl\aa b\"ar
O: Sweden
M: 3/4
L: 1/4
K: Dm
| "Dm"D F G | kF> E D | F F "C"G | "F"A2 "C"c | "F"A2 "Bb"F | "F"A2 z |
| "Dm"F>F F | F G A | "Gm"A G F | "A7"G2 A | "Dm"F F/>E/ D/F/ | "A7"E A, G |
| "Dm"F  F/>E/ D/F/ | "A7"E A, ^C | "Dm"D A> G | "Gm"A E G | "Dm"F2 "A7"E | "Dm"D2 z |]
